icons/Device/sim-card-fill.svg

<svg viewBox="0 0 24 24" xmlns="http://www.w3.org/2000/svg"><path d="M5 2H15L19.7071 6.70711C19.8946 6.89464 20 7.149 20 7.41421V21C20 21.5523 19.5523 22 19 22H5C4.44772 22 4 21.5523 4 21V3C4 2.44772 4.44772 2 5 2ZM8 12V18H16V12H8Z"/></svg>

<svg xmlns="http://www.w3.org/2000/svg" viewBox="0 0 24 24">
    <g>
        <path fill="none" d="M0 0h24v24H0z"/>
        <path d="M5 2h10l4.707 4.707a1 1 0 0 1 .293.707V21a1 1 0 0 1-1 1H5a1 1 0 0 1-1-1V3a1 1 0 0 1 1-1zm3 10v6h8v-6H8z"/>
    </g>
</svg>
